!!!!SEGMENT: pl-sa--17-a-i-17--001-003_janicki-mikolaj--rondo-z-krakowiaka-g-dur.krn
!!!cenid: 18xx:349
!!!COM: Janicki, Mikołaj
!!!COM-rismID:
!!!CDT: <1805->1844
!!!CNT: Polish
!!!OPR: Rondo z Krakowiaka
!!!OTL: G-dur
!!!OMV: 003
!!!PDT:
!!!AGN: Secular
!!!SMS-siglum: PL-SA
!!!SMS-shelfmark: 17/A I 17
!!!SMS-shelfwork: 001-003 M
!!!SMS-variant:
!!!SMS-altvar:
!!!NIFC-rismSourceID: 1001065729
!!!NIFC-islandoraID:
!!!URL-pdf-islandora:
!!!URL-scan: https://bc.bdsandomierz.pl/dlibra/publication/1283/edition/1251/content @EN{Scan on Cyfrowa Biblioteka Diecezjalna w Sandomierzu} @PL{Skany w portalu Cyfrowa Biblioteka Diecezjalna w Sandomierzu}
!!!ONB-nifc: UWAGA: 3 utwory: Allegro, utwór w g-moll, utwór w G-dur
!!!AIN: 1 piano
!!!key:
**kern	**kern	**dynam
*part1	*part1	*part1
*staff2	*staff1	*
*Ipiano	*Iempty	*
*I"Piano	*	*
*I'P-no	*	*
*clefF4	*clefG2	*
*k[f#]	*k[f#]	*
*G:	*G:	*
*M2/4	*M2/4	*
=1	=1	=1
8G\L 8B\	8g\L	p
8d\J	8gsS\J	.
*rep	*	*
8G\L 8B\	8b\L	.
8d\J	8cc\J	.
*Xrep	*	*
=2	=2	=2
*rep	*	*
8G\L 8B\	8dd\L	.
!	!LO:TURN:facc	!
8d\J	8ddsSSs\J	.
8G\L 8B\	8ee\L	.
8d\J	8dd\J	.
*Xrep	*	*
=3	=3	=3
*rep	*	*
8G\L 8B\	8dd\L	.
8d\J	8cc#X\	.
8G\L 8B\	8ee\	.
8d\J	8dd\J	.
*Xrep	*	*
=4	=4	=4
*rep	*	*
8G\L 8B\	8dd\L	.
8d\J	8cc#X\	.
8G\L 8B\	8ee\	.
8d\J	8dd\J	.
*Xrep	*	*
=5	=5	=5
8A\L 8c\	8dd\L	.
.	8qee/	.
8d\J	8dd\J	.
8D\L 8A\	8.ccn\L	.
8d\J	.	.
.	16a\Jk	.
=6	=6	=6
8G\L 8B\	8a/L	.
8d\J	8g/J	.
4G\ 4B\	4g/	.
=7	=7	=7
8GG/L	8gg\L	f
8G/J	8ggsS\J	.
8GG/L	8gg\L 8bb\	.
8GG/J 8BB/ 8D/ 8G/	8aa\J 8ccc\	.
!!LO:LB:g=original
=8	=8	=8
8GG/L	8bb\L 8ddd\	.
8G/J	8aa#X\J 8ccc#X\	.
8GG/L	(8cccn\L 8eee\	>
8GG/J 8D/ 8G/	8bb\J) 8ddd\	]
=9	=9	=9
*rep	*rep	*
8GG/L	8bb\L 8ddd\	.
8G/J	8aa#X\J 8ccc#X\	.
8GG/L	(8cccn\L 8eee\	.
8GG/J 8D/ 8G/	8bb\J) 8ddd\	.
*Xrep	*Xrep	*
=10	=10	=10
*rep	*rep	*
8GG/L	8bb\L 8ddd\	.
8G/J	8aa#X\J 8ccc#X\	.
8GG/L	(8cccn\L 8eee\	.
8GG/J 8D/ 8G/	8bb\J) 8ddd\	.
*Xrep	*Xrep	*
=11	=11	=11
8DD/L	8bb\L 8ddd\	.
.	8qeee/	.
8D/J	8bb\J 8ddd\	.
8DD/L	8.aa\L 8.ccc\	.
8FF#/J 8AA/ 8D/	.	.
.	16ff#\Jk 16aa\	.
=12	=12	=12
8GG/L	8gg\	.
8BB/J 8D/ 8G/	4gg\ 4bb\	.
*rep	*	*
8GG/L	.	.
8BB/J 8D/ 8G/	16gg\LL 16bb\	.
.	16aa\JJ 16ccc\	.
*Xrep	*	*
=13	=13	=13
8DD/L	8bb\L 8ddd\	.
8D/J	8bb\J 8ddd\	.
8DD/L	8.aa\L 8.ccc\	.
8FF#/J 8AA/ 8D/	.	.
.	16ff#\Jk 16aa\	.
=14	=14	=14
8G\L	8.cc\L 8.aa\	.
8D\J	.	.
.	16b\Jk 16gg\	.
4GG/	4b\ 4gg\	.
*clefG2	*	*
=15||	=15||	=15||
8d#X/L 8f#/ 8a/	8bb\L	.
8b/J	8bbsSSS\J	.
*rep	*	*
8d#/L 8f#/ 8a/	8ccc#y\L	.
8b/J	8bb\J	.
*Xrep	*	*
!!LO:LB:g=original
=16	=16	=16
8e/L 8g/	8bb\	.
8b/J	4ggg\	.
*rep	*	*
8e/L 8g/	.	.
8b/J	16fff#\LL	.
.	16eee\JJ	.
*Xrep	*	*
=17	=17	=17
*	*clefF4	*
8d#X/L 8f#/ 8a/	8.B\L	.
8b/J	.	.
.	16B\Jk	.
*rep	*	*
8d#/L 8f#/ 8a/	8.A\L	.
8b/J	.	.
.	16F#\Jk	.
*Xrep	*	*
=18	=18	=18
8e/L 8g/	8A\L	.
8b/J	8G\J	.
*rep	*	*
8e/L 8g/	4G\	.
8b/J	.	.
*Xrep	*	*
=19	=19	=19
*	*clefG2	*
8c#X/L 8e/ 8g/	8aa\L	.
8a/J	8aa\J	.
*rep	*	*
8c#/L 8e/ 8g/	8bb\L	.
8a/J	8aa\J	.
*Xrep	*	*
=20	=20	=20
8d/L 8f#/	8aa\	.
8a/J	4fff#\	.
*rep	*	*
8d/L 8f#/	.	.
8a/J	16eee\LL	.
.	16ddd\JJ	.
*Xrep	*	*
=21	=21	=21
*	*clefF4	*
8c#X/L 8e/ 8g/	8.A\L	.
8a/J	.	.
.	16A\Jk	.
*rep	*	*
8c#/L 8e/ 8g/	8.G\L	.
8a/J	.	.
.	16C#X\Jk	.
*Xrep	*	*
=22	=22	=22
8d/L 8f#/	(8E\L	.
8a/J	8D\J)	.
*rep	*	*
8d/L 8f#/	4D\	.
8a/J	.	.
*Xrep	*	*
*clefF4	*clefG2	*
!!LO:LB:g=original
=23	=23	=23
8CC/L	16ff#\LL 16aa\	.
.	16g\	.
8C/J	16ee\ 16gg\	.
.	16g\JJ	.
*rep	*	*
8CC/L	16dd\LL 16ff#\	.
.	16g\	.
8C/J	16cc\ 16ee\	.
.	16g\JJ	.
*Xrep	*	*
=24	=24	=24
8DD/L	16b/LL 16dd/	.
.	16d/	.
8D/J	16g/ 16b/	.
.	16d/JJ	.
*rep	*	*
8DD/L	16g/LL 16b/	.
.	16d/	.
8D/J	16b/ 16dd/	.
.	16d/JJ	.
*Xrep	*	*
=25	=25	=25
*rep	*	*
8DD/L	16b/LL 16dd/	.
.	16d/	.
8D/J	16a/ 16cc/	.
.	16d/JJ	.
8DD/L	16g/LL 16b/	.
.	16d/	.
8D/J	16f#/ 16a/	.
.	16d/JJ	.
*Xrep	*	*
=26	=26	=26
8GG/L 8G/	16b/LL 16gg/	p
.	16g/	.
8GG/ 8G/	16b/ 16gg/	.
.	16g/JJ	.
*	*rep	*
8BB/ 8B/	16b/LL 16gg/	.
.	16g/	.
8C/J 8c/	16b/ 16gg/	.
.	16g/JJ	.
*	*Xrep	*
=27	=27	=27
*	*tremolo	*
8D\L 8d\	16b/LL 16gg/	.
.	16g/	.
8C#X\ 8c#X\	16b/ 16gg/	.
.	16g/	.
8E\ 8e\	16b/ 16gg/	.
.	16g/	.
8D\J 8d\	16b/ 16gg/	.
.	16g/JJ	.
=28	=28	=28
*	*rep	*
8D\L 8d\	16b/LL 16gg/	.
.	16g/	.
8C#X\ 8c#X\	16b/ 16gg/	.
.	16g/	.
8E\ 8e\	16b/ 16gg/	.
.	16g/	.
8D\J 8d\	16b/ 16gg/	.
.	16g/JJ	.
*	*Xrep	*
=29	=29	=29
*	*rep	*
8D\L 8d\	16b/LL 16gg/	.
.	16g/	.
8C\ 8c\	16b/ 16gg/	.
.	16g/	.
8E\ 8e\	16b/ 16gg/	.
.	16g/	.
8D\J 8d\	16b/ 16gg/	.
.	16g/JJ	.
*	*Xrep	*
!!LO:PB:g=original
=30	=30	=30
*	*Xtremolo	*
!LO:TX:t=P:problem=mixed beam	!	!
8DD/L	8bb\L 8ddd\	f
8D\J	8bb\J 8ddd\	.
*rep	*	*
!LO:TX:t=P:problem=mixed beam	!	!
8DD/L	8aa\L 8cccn\	.
8D\J	16ff#\L (16aa\	.
.	16ee\JJ 16gg\)	.
*Xrep	*	*
=31	=31	=31
*rep	*	*
!LO:TX:t=P:problem=mixed beam	!LO:TUP:a:problem=klamra łukowa	!
8DD/L	12dd\L 12ff#\	.
.	12cc\ 12ee\	.
8D\J	.	.
.	12b\J 12dd\	.
!LO:TX:t=P:problem=mixed beam	!LO:TUP:b:problem=klamra łukowa	!
8DD/L	12a/L 12cc/	.
.	12g/ 12b/	.
8D\J	.	.
.	12f#/J 12a/	.
*Xrep	*	*
=32	=32	=32
*	*tremolo	*
8GG\L 8G\	16b/LL 16gg/	.
.	16g/	.
8GG\ 8G\	16b/ 16gg/	.
.	16g/	.
8BB\ 8B\	16b/ 16gg/	.
.	16g/	.
8C\J 8c\	16b/ 16gg/	.
.	16g/JJ	.
=33	=33	=33
8D\L 8d\	16b/LL 16gg/	.
.	16g/	.
8C#X\ 8c#X\	16b/ 16gg/	.
.	16g/	.
8E\ 8e\	16b/ 16gg/	.
.	16g/	.
8D\J 8d\	16b/ 16gg/	.
.	16g/JJ	.
=34	=34	=34
8D\L 8d\	16b/LL 16gg/	.
.	16g/	.
8C\ 8c\	16b/ 16gg/	.
.	16g/	.
8E\ 8e\	16b/ 16gg/	.
.	16g/	.
8D\J 8d\	16b/ 16gg/	.
.	16g/JJ	.
=35	=35	=35
8D\L 8d\	16b/LL 16gg/	.
.	16g/	.
8C#X\ 8c#X\	16b/ 16gg/	.
.	16g/	.
8E\ 8e\	16b/ 16gg/	.
.	16g/	.
8D\J 8d\	16b/ 16gg/	.
.	16g/JJ	.
=36	=36	=36
8DD#X/L	4dd#X\ 4ff#\ 4aa\ 4ccc\	.
8D/J	.	.
8DD#X/L	4dd#\ 4ff#\ 4aa\ 4ccc\	.
8D/J	.	.
!!LO:LB:g=original
=37	=37	=37
4EE;/ 4E/	4ee;\ 4gg\ 4bb\	.
!LO:SIC:o:s=:v:t:nieczytelny dźwięk. prawdopodobnie 4CC	!	!
4CCyy/ 4C/	4cc\ 4ee\ 4aa\	.
=38	=38	=38
4DD/ 4D/	4bn\ 4dd\ 4gg\	.
4DD:/ 4FF#/: 4AA/: 4D/:	4A:/ 4c/: 4d/: 4f#/:	.
=39	=39	=39
4BBB:/ 4DD/: 4GG/:	4G:/ 4B/: 4d/: 4g/:	.
4r	4r	.
==	==	==
*-	*-	*-
!!!system-decoration: {(s1,s2)}
!!!EED: Leszek Kubiak
!!!EEV: 2020-09-23
!!!ENC: Anastazja Marusiak
!!!END: 2020-06-02
